X:1
T:The Two Sisters
M:6/8
L:1/8
K:F
 C| DGG G2 F| G2 A/2A/2 B3/2- A/2- G| G3/2- F/2- D D2 C| DGG G2 F|\
 G2 A/2A/2 B2 f| d2 c B2 c|
M:9/8
 d3- d2 z d3|
M:6/8
 fdd d2 c| B2 c/2c/2 d2 d|B-A B| G2 B|
M:9/8
A-G F D2 C D2 F|
M:6/8
 G2 F G3| d3 B2 d| cBA G2 F| G3- G2||
